blockchains/ethereum/assets/0x39AA39c021dfbaE8faC545936693aC917d5E7563/logo.svg

<svg fill="none" height="250" viewBox="0 0 250 250" width="250" xmlns="http://www.w3.org/2000/svg" xmlns:xlink="http://www.w3.org/1999/xlink"><linearGradient id="a" gradientUnits="userSpaceOnUse" x1="89.9355" x2="129.09" y1="14.0057" y2="231.089"><stop offset="0" stop-color="#27d3a2"/><stop offset="1" stop-color="#9388fd"/></linearGradient><clipPath id="b"><path d="m0 0h250v250h-250z"/></clipPath><g clip-path="url(#b)"><path d="m125.098 250.094c68.981 0 124.902-55.921 124.902-124.903 0-68.9813-55.921-124.901938-124.902-124.901938-68.982 0-124.902688 55.920638-124.902688 124.901938 0 68.982 55.920688 124.903 124.902688 124.903z" fill="#edf0f2"/><path d="m204.395 221.578c-19.043 15.723-42.383 25.391-66.993 27.735-32.91 3.223-65.8199-6.738-91.5035-27.735-25.5859-20.996-41.79688-51.269-45.117195-84.277-2.441405-24.609 2.441405-49.3163 14.062495-71.0936 11.6211-21.7773 29.4922-39.6484 51.2695-51.2695 21.7774-11.62112 46.4847-16.60159 71.0937-14.160183 24.609 2.441403 47.852 12.011683 66.992 27.734383l-25.195 30.7617c-12.988-10.6445-28.906-17.2851-45.703-18.8476-16.797-1.6602-33.5939 1.7578-48.4377 9.6679-14.8437 7.9102-26.9531 20.1172-34.9609 34.9609-7.9102 14.8438-11.2305 31.738-9.5703 48.438 2.2461 22.46 13.2812 43.164 30.7617 57.421 17.4805 14.356 39.9412 21.094 62.4022 18.848 16.797-1.66 32.617-8.301 45.606-18.945z" fill="url(#a)"/><path d="m125.488 227.441c56.348 0 101.953-45.703 101.953-101.953 0-56.3474-45.605-102.0505-101.953-102.0505-56.3474 0-102.0505 45.7031-102.0505 102.0505 0 56.348 45.7031 101.953 102.0505 101.953z" fill="#fff"/><path d="m142.48 133.594c0-9.571-5.859-12.793-17.285-14.258-8.398-1.172-10.058-3.125-10.058-7.031 0-3.907 2.832-6.25 8.301-6.25 4.98 0 7.812 1.66 8.984 5.664.098.39.39.781.781 1.074s.781.391 1.27.391h4.394c.293 0 .586-.098.781-.196.293-.097.489-.293.684-.488s.293-.488.391-.684c.097-.293.097-.586 0-.879-1.368-6.25-5.664-9.96-12.305-11.1323v-6.543c0-.5859-.195-1.0742-.586-1.4648-.391-.3907-.879-.586-1.465-.586h-4.199c-.586 0-1.074.1953-1.465.586-.391.3906-.586.8789-.586 1.4648v6.3477c-8.301 1.1716-13.574 6.5426-13.574 13.4766 0 8.984 5.566 12.402 17.09 13.965 7.91 1.269 10.156 2.929 10.156 7.324s-3.809 7.324-9.18 7.324c-7.226 0-9.668-3.125-10.546-7.129-.098-.488-.391-.879-.684-1.172-.391-.293-.879-.488-1.27-.488h-4.785c-.293 0-.586.098-.781.195-.293.098-.488.293-.684.489-.195.195-.293.488-.39.683-.098.293-.098.586 0 .782 1.172 6.836 5.664 11.816 14.746 12.988v6.445c0 .586.195 1.074.586 1.465.39.391.879.586 1.465.586h4.199c.586 0 1.074-.195 1.465-.586.39-.391.586-.879.586-1.465v-6.445c8.496-1.367 13.964-7.129 13.964-14.453z" fill="#283947"/><g fill="#657786"><path d="m110.937 162.89c-7.91-2.832-14.7456-8.106-19.6284-14.942-4.8828-6.835-7.4219-15.039-7.4219-23.339 0-8.301 2.6367-16.504 7.4219-23.34 4.8828-6.8362 11.7184-12.1096 19.6284-14.9416.489-.1953.977-.586 1.27-1.0742.293-.4883.488-.9766.488-1.5625v-3.8086c0-.293 0-.6836-.195-.9766-.098-.293-.391-.5859-.684-.7813-.293-.1953-.586-.2929-.976-.3906-.391-.0976-.684 0-.977.1953-9.9607 3.125-18.6521 9.375-24.9021 17.7735-6.1523 8.3986-9.4726 18.4566-9.4726 28.9066 0 10.351 3.3203 20.507 9.4726 28.906 6.1524 8.398 14.8438 14.551 24.9021 17.773.293.098.684.196.977.196s.683-.196.976-.391.489-.488.684-.781c.098-.293.195-.684.195-.977v-3.808c0-.586-.195-1.075-.488-1.563s-.684-.879-1.27-1.074z"/><path d="m139.258 78.0234c-.293-.0976-.684-.1953-.977-.1953s-.683.1953-.976.3907c-.293.1953-.489.4882-.684.7812-.098.293-.195.6836-.195.9766v3.8086c0 .5859.195 1.0742.488 1.5625.293.4882.781.7812 1.27 1.0742 7.91 2.832 14.746 8.1054 19.629 14.9411 4.882 6.836 7.421 15.039 7.421 23.34s-2.636 16.504-7.421 23.34c-4.883 6.836-11.719 12.109-19.629 14.941-.489.196-.977.586-1.27.977-.293.488-.488.977-.488 1.562v3.809c0 .293 0 .684.195.977.098.293.391.586.684.781s.586.293.976.39c.293 0 .684 0 .977-.195 9.961-3.125 18.652-9.375 24.902-17.773 6.153-8.399 9.473-18.457 9.473-28.907 0-10.351-3.32-20.507-9.473-28.9058-6.25-8.3008-14.941-14.5508-24.902-17.6758z"/></g></g></svg>

<svg width="250" height="250" viewBox="0 0 250 250" fill="none" xmlns="http://www.w3.org/2000/svg">
<g clip-path="url(#clip0_48_13222)">
<path d="M125.098 250.094C194.079 250.094 250 194.173 250 125.191C250 56.2097 194.079 0.289062 125.098 0.289062C56.116 0.289062 0.195312 56.2097 0.195312 125.191C0.195312 194.173 56.116 250.094 125.098 250.094Z" fill="#EDF0F2"/>
<path d="M204.395 221.578C185.352 237.301 162.012 246.969 137.402 249.313C104.492 252.536 71.5821 242.575 45.8985 221.578C20.3126 200.582 4.10162 170.309 0.781305 137.301C-1.6601 112.692 3.22271 87.9847 14.8438 66.2074C26.4649 44.4301 44.336 26.559 66.1133 14.9379C87.8907 3.31678 112.598 -1.66369 137.207 0.777717C161.816 3.21912 185.059 12.7894 204.199 28.5121L179.004 59.2738C166.016 48.6293 150.098 41.9887 133.301 40.4262C116.504 38.766 99.7071 42.184 84.8633 50.0941C70.0196 58.0043 57.9102 70.2113 49.9024 85.055C41.9922 99.8988 38.6719 116.793 40.3321 133.493C42.5782 155.953 53.6133 176.657 71.0938 190.914C88.5743 205.27 111.035 212.008 133.496 209.762C150.293 208.102 166.113 201.461 179.102 190.817L204.395 221.578Z" fill="url(#paint0_linear_48_13222)"/>
<path d="M125.488 227.441C181.836 227.441 227.441 181.738 227.441 125.488C227.441 69.1406 181.836 23.4375 125.488 23.4375C69.1406 23.4375 23.4375 69.1406 23.4375 125.488C23.4375 181.836 69.1406 227.441 125.488 227.441Z" fill="white"/>
<path d="M142.48 133.594C142.48 124.023 136.621 120.801 125.195 119.336C116.797 118.164 115.137 116.211 115.137 112.305C115.137 108.398 117.969 106.055 123.438 106.055C128.418 106.055 131.25 107.715 132.422 111.719C132.52 112.109 132.812 112.5 133.203 112.793C133.594 113.086 133.984 113.184 134.473 113.184H138.867C139.16 113.184 139.453 113.086 139.648 112.988C139.941 112.891 140.137 112.695 140.332 112.5C140.527 112.305 140.625 112.012 140.723 111.816C140.82 111.523 140.82 111.23 140.723 110.937C139.355 104.687 135.059 100.977 128.418 99.8047V93.2617C128.418 92.6758 128.223 92.1875 127.832 91.7969C127.441 91.4062 126.953 91.2109 126.367 91.2109H122.168C121.582 91.2109 121.094 91.4062 120.703 91.7969C120.312 92.1875 120.117 92.6758 120.117 93.2617V99.6094C111.816 100.781 106.543 106.152 106.543 113.086C106.543 122.07 112.109 125.488 123.633 127.051C131.543 128.32 133.789 129.98 133.789 134.375C133.789 138.77 129.98 141.699 124.609 141.699C117.383 141.699 114.941 138.574 114.063 134.57C113.965 134.082 113.672 133.691 113.379 133.398C112.988 133.105 112.5 132.91 112.109 132.91H107.324C107.031 132.91 106.738 133.008 106.543 133.105C106.25 133.203 106.055 133.398 105.859 133.594C105.664 133.789 105.566 134.082 105.469 134.277C105.371 134.57 105.371 134.863 105.469 135.059C106.641 141.895 111.133 146.875 120.215 148.047V154.492C120.215 155.078 120.41 155.566 120.801 155.957C121.191 156.348 121.68 156.543 122.266 156.543H126.465C127.051 156.543 127.539 156.348 127.93 155.957C128.32 155.566 128.516 155.078 128.516 154.492V148.047C137.012 146.68 142.48 140.918 142.48 133.594Z" fill="#283947"/>
<path d="M110.937 162.89C103.027 160.058 96.1914 154.784 91.3086 147.948C86.4258 141.113 83.8867 132.909 83.8867 124.609C83.8867 116.308 86.5234 108.105 91.3086 101.269C96.1914 94.4328 103.027 89.1594 110.937 86.3274C111.426 86.1321 111.914 85.7414 112.207 85.2532C112.5 84.7649 112.695 84.2766 112.695 83.6907V79.8821C112.695 79.5891 112.695 79.1985 112.5 78.9055C112.402 78.6125 112.109 78.3196 111.816 78.1242C111.523 77.9289 111.23 77.8313 110.84 77.7336C110.449 77.636 110.156 77.7336 109.863 77.9289C99.9023 81.0539 91.2109 87.3039 84.9609 95.7024C78.8086 104.101 75.4883 114.159 75.4883 124.609C75.4883 134.96 78.8086 145.116 84.9609 153.515C91.1133 161.913 99.8047 168.066 109.863 171.288C110.156 171.386 110.547 171.484 110.84 171.484C111.133 171.484 111.523 171.288 111.816 171.093C112.109 170.898 112.305 170.605 112.5 170.312C112.598 170.019 112.695 169.628 112.695 169.335V165.527C112.695 164.941 112.5 164.452 112.207 163.964C111.914 163.476 111.523 163.085 110.937 162.89Z" fill="#657786"/>
<path d="M139.258 78.0234C138.965 77.9258 138.574 77.8281 138.281 77.8281C137.988 77.8281 137.598 78.0234 137.305 78.2188C137.012 78.4141 136.816 78.707 136.621 79C136.523 79.293 136.426 79.6836 136.426 79.9766V83.7852C136.426 84.3711 136.621 84.8594 136.914 85.3477C137.207 85.8359 137.695 86.1289 138.184 86.4219C146.094 89.2539 152.93 94.5273 157.813 101.363C162.695 108.199 165.234 116.402 165.234 124.703C165.234 133.004 162.598 141.207 157.813 148.043C152.93 154.879 146.094 160.152 138.184 162.984C137.695 163.18 137.207 163.57 136.914 163.961C136.621 164.449 136.426 164.938 136.426 165.523V169.332C136.426 169.625 136.426 170.016 136.621 170.309C136.719 170.602 137.012 170.895 137.305 171.09C137.598 171.285 137.891 171.383 138.281 171.48C138.574 171.48 138.965 171.48 139.258 171.285C149.219 168.16 157.91 161.91 164.16 153.512C170.313 145.113 173.633 135.055 173.633 124.605C173.633 114.254 170.313 104.098 164.16 95.6992C157.91 87.3984 149.219 81.1484 139.258 78.0234Z" fill="#657786"/>
</g>
<defs>
<linearGradient id="paint0_linear_48_13222" x1="89.9355" y1="14.0057" x2="129.09" y2="231.089" gradientUnits="userSpaceOnUse">
<stop stop-color="#27D3A2"/>
<stop offset="1" stop-color="#9388FD"/>
</linearGradient>
<clipPath id="clip0_48_13222">
<rect width="250" height="250" fill="white"/>
</clipPath>
</defs>
</svg>
